X:1
T:Sandy Bell's
L:1/8
M:4/4
I:linebreak $
K:D
V:1 treble 
V:1
 FG^GA dAFA | (3FG^G Ad (3FGG Ad | BAGB AG F2 | E2 ed cBAG | FG^GA dAFA |$ (3FG^G Ad (3FGG Ad | %6
 BAGB AG F2 | E2 c2 d4 :| de | f2 fg fedc | =c2 cd cB A2 | BAGB AG F2 |$ E2 ed cB A2 |1 %13
 f2 fg fedc | =c2 cd cB A2 | BAGB AG F2 | E2 c2 d4 :|2 FG^GA dAFA |$ (3FG^G Ad (3FGG Ad | %19
 BAGB AG F2 | E2 c2 d4 :| %21
